X:182
T:Poaching song - Mortimore
%%VWML:SBG-1-2-215-0
F:http://www.vwml.org/record/SBG/1/2/215
Z:Original Sibelius transcriptions by M. & S. Graebe
M:2/4
I:linebreak $
K:C
V:1 treble nm="P1"
V:1
 g | gfed | c c2 c | dcBA | G3 G | GccB | A2 d d | dcdd | G3 e/f/ |$ gggg | g g2 g | agfe | f3 d | %13
 agfe | fed3/2 d/ | edcB | c3"^chorus" G |$ A3 B | c2 de | cd ef | d2 f | agfe | fedd | edcB | %24
 c2 x2 | %25

